icon-svg/nanoleaf-cup.svg

<svg xmlns="http://www.w3.org/2000/svg" viewBox="0 0 24 24"><path fill="#44739e" d="M14.759 15.44v-.008s-.009-.1-.795-.19a20 20 0 0 0-1.515-.1v.483h-.079V4.844a2.6 2.6 0 0 0-.744-.01v10.789h-.079v-.485c-.58 0-1.114.029-1.537.07-.609.059-.753.132-.788.162h-.006v.025l.009.073.66 5.929.04.154c.528.493 3.367.718 4.179-.057l.057-.515.59-5.464ZM11.088 4.689v.065c0 .031.186.059.461.073v-.063l.055-.007a2.7 2.7 0 0 1 .814.015h.033v.048c.255-.015.425-.041.425-.071v-.06a2.5 2.5 0 0 0-.894-.083 2.5 2.5 0 0 0-.894.083m-4.713-.044c0-.262 3.018-.635 5.636-.589 1.944.034 5.799.288 5.799.55s-2.212.6-5.36.626v.455c3.154-.047 5.799-.552 5.799-.799a.1.1 0 0 0-.01-.036l-.383-1.457c-.179-.681-.879-.979-1.75-1.154a2 2 0 0 0-.227-.033l-1.345-.138Q13.826 2 13.114 2h-2.135c-3.175 0-3.723.374-3.723.374a1.81 1.81 0 0 0-1.245 1.12l-.26 1.365v.026c0 .251 2.636.758 5.799.799v-.453c-3.081-.031-5.175-.338-5.175-.586"/></svg>

<?xml version="1.0" encoding="UTF-8"?>
<svg width="24px" fill="#44739e" height="24px" viewBox="0 0 24 24" version="1.1" xmlns="http://www.w3.org/2000/svg" xmlns:xlink="http://www.w3.org/1999/xlink">
            <path d="m 14.759,15.442 v 0 -0.008 c 0,0 -0.009,-0.1 -0.795,-0.19 -0.417,-0.048 -0.943,-0.081 -1.515,-0.1 v 0.483 H 12.37 V 4.844 A 2.612,2.612 0 0 0 11.626,4.834 V 15.625 H 11.547 V 15.14 c -0.58,0 -1.114,0.029 -1.537,0.07 -0.609,0.059 -0.753,0.132 -0.788,0.162 H 9.216 v 0.009 0.007 0.009 l 0.009,0.073 0.66,5.93 0.04,0.154 c 0.528,0.493 3.367,0.718 4.179,-0.057 l 0.057,-0.515 0.59,-5.465 z M 11.088,4.689 v 0.065 c 0,0.031 0.186,0.059 0.461,0.073 V 4.764 l 0.055,-0.007 a 2.645,2.645 0 0 1 0.814,0.015 h 0.033 V 4.82 C 12.706,4.805 12.876,4.779 12.876,4.749 V 4.689 A 2.474,2.474 0 0 0 11.982,4.606 2.474,2.474 0 0 0 11.088,4.689 Z M 6.374,4.645 c 0,-0.262 3.019,-0.635 5.637,-0.589 1.944,0.034 5.8,0.288 5.8,0.55 0,0.262 -2.212,0.6 -5.361,0.626 v 0.456 c 3.155,-0.047 5.8,-0.553 5.8,-0.8 A 0.07,0.07 0 0 0 18.24,4.852 L 17.857,3.395 C 17.678,2.714 16.978,2.416 16.107,2.241 A 2.177,2.177 0 0 0 15.88,2.208 L 14.534,2.07 Q 13.826,2 13.114,2 H 10.979 C 7.803,2 7.255,2.374 7.255,2.374 A 1.809,1.809 0 0 0 6.01,3.494 L 5.75,4.859 a 0.085,0.085 0 0 0 0,0.026 c 0,0.251 2.636,0.759 5.8,0.8 V 5.231 C 8.468,5.2 6.374,4.893 6.374,4.645 Z"/>

</svg>
